svgs/sharp-solid/money-bills.svg

<svg xmlns="http://www.w3.org/2000/svg" viewBox="0 0 640 512"><!--! Font Awesome Pro 6.6.0 by @fontawesome - https://fontawesome.com License - https://fontawesome.com/license (Commercial License) Copyright 2024 Fonticons, Inc. --><path d="M96 32l0 352 544 0 0-352L96 32zm64 224c35.3 0 64 28.7 64 64l-64 0 0-64zM224 96c0 35.3-28.7 64-64 64l0-64 64 0zM576 256l0 64-64 0c0-35.3 28.7-64 64-64zM512 96l64 0 0 64c-35.3 0-64-28.7-64-64zM288 208a80 80 0 1 1 160 0 80 80 0 1 1 -160 0zM48 120l0-24L0 96l0 24L0 456l0 24 24 0 496 0 24 0 0-48-24 0L48 432l0-312z"/></svg>

<svg xmlns="http://www.w3.org/2000/svg" viewBox="0 0 640 512"><!--! Font Awesome Pro 6.5.2 by @fontawesome - https://fontawesome.com License - https://fontawesome.com/license (Commercial License) Copyright 2024 Fonticons, Inc. --><path d="M96 32V384H640V32H96zm64 224c35.3 0 64 28.7 64 64H160V256zM224 96c0 35.3-28.7 64-64 64V96h64zM576 256v64H512c0-35.3 28.7-64 64-64zM512 96h64v64c-35.3 0-64-28.7-64-64zM288 208a80 80 0 1 1 160 0 80 80 0 1 1 -160 0zM48 120V96H0v24V456v24H24 520h24V432H520 48V120z"/></svg>
